public/logos/TM.svg

<?xml version="1.0" encoding="UTF-8"?>
<svg xmlns="http://www.w3.org/2000/svg" xmlns:xlink="http://www.w3.org/1999/xlink" width="177.53pt" height="59pt" viewBox="0 0 177.53 59" version="1.1">
<defs>
<clipPath id="clip1">
  <path d="M 166 1 L 177.53125 1 L 177.53125 41 L 166 41 Z M 166 1 "/>
</clipPath>
</defs>
<g id="surface1">
<path style=" stroke:none;fill-rule:nonzero;fill:rgb(92.980957%,11.471558%,14.03656%);fill-opacity:1;" d="M 23.507812 41.339844 C 21.21875 42.742188 19.152344 44.011719 17.082031 45.28125 C 17.117188 45.371094 17.15625 45.464844 17.191406 45.554688 C 19.863281 45.21875 22.535156 44.882812 25.457031 44.515625 C 24.765625 43.390625 24.183594 42.441406 23.507812 41.339844 Z M 36.351562 55.347656 C 38.148438 52.722656 39.773438 50.34375 41.542969 47.761719 C 40.371094 47.761719 39.589844 47.761719 38.789062 47.761719 C 38.171875 48.59375 37.578125 49.390625 36.914062 50.28125 C 36.296875 49.339844 35.769531 48.539062 35.25 47.746094 C 34.371094 47.746094 33.539062 47.746094 32.433594 47.746094 C 33.753906 50.308594 34.980469 52.6875 36.351562 55.347656 Z M 24.320312 29.296875 C 24.46875 28.433594 24.570312 27.832031 24.71875 26.960938 C 21.234375 27.253906 17.894531 27.53125 14.550781 27.808594 C 14.523438 27.933594 14.492188 28.054688 14.460938 28.179688 C 17.15625 30.363281 19.851562 32.542969 22.722656 34.867188 C 23.015625 33.859375 23.21875 33.164062 23.417969 32.46875 C 22.398438 31.542969 21.441406 30.671875 20.308594 29.644531 C 21.859375 29.511719 23.042969 29.40625 24.320312 29.296875 Z M 0 40.832031 C 7.265625 39.769531 14.535156 38.710938 21.800781 37.652344 C 21.847656 37.535156 21.894531 37.421875 21.941406 37.308594 C 17.503906 33.667969 13.066406 30.03125 8.277344 26.109375 C 14.957031 25.414062 21.261719 24.757812 27.851562 24.070312 C 25.230469 16.941406 22.683594 10.003906 20.082031 2.921875 C 21.847656 1.9375 23.519531 1.007812 25.332031 0 C 27.535156 12.105469 29.707031 24 31.898438 36.027344 C 37.007812 35.453125 41.9375 34.902344 46.945312 34.339844 C 47.238281 34.625 47.558594 34.929688 47.941406 35.292969 C 48.984375 35.195312 50.082031 35.089844 51.179688 34.984375 C 51.214844 35.09375 51.242188 35.199219 51.277344 35.304688 C 47.28125 37.476562 43.285156 39.644531 38.984375 41.976562 C 45.324219 46.382812 51.476562 50.652344 57.910156 55.117188 C 55.785156 55.742188 53.96875 56.273438 52.160156 56.800781 C 49.566406 53.742188 47.09375 50.832031 44.507812 47.785156 C 41.707031 51.539062 39.015625 55.148438 36.144531 59 C 33.984375 55.148438 31.910156 51.449219 29.769531 47.632812 C 24.246094 50.730469 18.820312 53.773438 13.28125 56.878906 C 12.707031 56.457031 12.136719 56.035156 11.4375 55.515625 C 15.867188 52.886719 20.117188 50.367188 24.371094 47.84375 C 24.335938 47.730469 24.300781 47.617188 24.265625 47.503906 C 18.015625 48.238281 11.761719 48.976562 5.511719 49.710938 C 5.460938 49.625 5.414062 49.539062 5.367188 49.449219 C 10.019531 46.703125 14.675781 43.957031 19.328125 41.207031 C 19.296875 41.089844 19.265625 40.976562 19.230469 40.859375 C 13.054688 41.5625 6.882812 42.269531 0.679688 42.976562 C 0.429688 42.691406 0.214844 42.449219 0 42.207031 C 0 41.746094 0 41.289062 0 40.832031 "/>
<path style=" stroke:none;fill-rule:nonzero;fill:rgb(92.980957%,11.471558%,14.03656%);fill-opacity:1;" d="M 137.972656 50.65625 C 135.367188 50.65625 132.933594 50.65625 130.328125 50.65625 C 129.585938 42.324219 128.839844 33.988281 128.097656 25.652344 C 127.976562 25.589844 127.855469 25.53125 127.738281 25.472656 C 122.476562 33.828125 117.375 42.289062 112.125 50.6875 C 109.628906 50.6875 107.175781 50.6875 104.378906 50.6875 C 114.214844 34.269531 123.964844 18 133.714844 1.730469 C 133.859375 1.742188 134 1.757812 134.144531 1.773438 C 135.417969 18.03125 136.691406 34.292969 137.972656 50.65625 "/>
<path style=" stroke:none;fill-rule:nonzero;fill:rgb(15.098572%,16.938782%,44.32373%);fill-opacity:1;" d="M 86.460938 1.085938 C 89.355469 1.085938 92.019531 1.085938 94.957031 1.085938 C 88.429688 12.679688 82 24.101562 75.429688 35.773438 C 83.832031 35.773438 91.929688 35.773438 100.492188 35.773438 C 99.382812 37.667969 98.460938 39.25 97.550781 40.804688 C 86.304688 40.804688 75.167969 40.804688 63.699219 40.804688 C 71.363281 27.429688 78.90625 14.265625 86.460938 1.085938 "/>
<path style=" stroke:none;fill-rule:nonzero;fill:rgb(15.098572%,16.938782%,44.32373%);fill-opacity:1;" d="M 162.816406 1.0625 C 154.9375 14.304688 147.203125 27.308594 139.464844 40.3125 C 139.335938 40.304688 139.203125 40.296875 139.074219 40.289062 C 137.800781 27.28125 136.523438 14.273438 135.234375 1.125 C 137.851562 1.125 140.285156 1.125 142.988281 1.125 C 143.566406 6.535156 144.148438 12.011719 144.734375 17.488281 C 144.847656 17.550781 144.957031 17.609375 145.066406 17.667969 C 148.414062 12.144531 151.757812 6.621094 155.128906 1.0625 C 157.589844 1.0625 160.042969 1.0625 162.816406 1.0625 "/>
<path style=" stroke:none;fill-rule:nonzero;fill:rgb(15.098572%,16.938782%,44.32373%);fill-opacity:1;" d="M 158.273438 24.285156 C 155.300781 29.800781 152.324219 35.320312 149.355469 40.832031 C 146.800781 40.832031 144.351562 40.832031 141.5625 40.832031 C 149.226562 27.613281 156.773438 14.59375 164.324219 1.570312 C 164.441406 1.578125 164.558594 1.589844 164.675781 1.601562 C 165.78125 14.601562 166.890625 27.601562 168.011719 40.753906 C 165.484375 40.753906 163.058594 40.753906 160.347656 40.753906 C 159.773438 35.324219 159.191406 29.847656 158.613281 24.371094 C 158.5 24.34375 158.386719 24.3125 158.273438 24.285156 "/>
<path style=" stroke:none;fill-rule:nonzero;fill:rgb(15.098572%,16.938782%,44.32373%);fill-opacity:1;" d="M 89.113281 29.558594 C 94.214844 29.558594 98.949219 29.558594 103.953125 29.558594 C 103.109375 31.132812 102.347656 32.554688 101.546875 34.050781 C 93.890625 34.050781 86.265625 34.050781 78.34375 34.050781 C 84.695312 22.914062 90.929688 11.980469 97.15625 1.0625 C 99.964844 1.0625 102.640625 1.0625 105.652344 1.0625 C 100.132812 10.570312 94.710938 19.917969 89.113281 29.558594 "/>
<path style=" stroke:none;fill-rule:nonzero;fill:rgb(15.098572%,16.938782%,44.32373%);fill-opacity:1;" d="M 108.5 40.835938 C 105.671875 40.835938 103.046875 40.835938 100.03125 40.835938 C 107.691406 27.472656 115.230469 14.320312 122.808594 1.09375 C 125.519531 1.09375 128.25 1.09375 131.308594 1.09375 C 123.667969 14.402344 116.097656 27.597656 108.5 40.835938 "/>
<g clip-path="url(#clip1)" clip-rule="nonzero">
<path style=" stroke:none;fill-rule:nonzero;fill:rgb(15.098572%,16.938782%,44.32373%);fill-opacity:1;" d="M 166.121094 1.078125 C 168.671875 1.078125 170.996094 1.078125 173.535156 1.078125 C 174.867188 14.277344 176.191406 27.445312 177.53125 40.757812 C 175.082031 40.757812 172.710938 40.757812 170.136719 40.757812 C 168.800781 27.585938 167.464844 14.378906 166.121094 1.078125 "/>
</g>
<path style=" stroke:none;fill-rule:nonzero;fill:rgb(92.980957%,11.471558%,14.03656%);fill-opacity:1;" d="M 128.371094 50.65625 C 123.761719 50.65625 119.285156 50.65625 114.578125 50.65625 C 118.535156 44.171875 122.402344 37.832031 126.269531 31.488281 C 126.382812 31.519531 126.496094 31.546875 126.609375 31.574219 C 127.195312 37.902344 127.777344 44.226562 128.371094 50.65625 "/>
<path style=" stroke:none;fill-rule:nonzero;fill:rgb(92.980957%,11.471558%,14.03656%);fill-opacity:1;" d="M 6.746094 23.222656 C 7.21875 21.910156 7.617188 20.796875 8.089844 19.488281 C 11.398438 19.117188 14.726562 18.742188 18.316406 18.339844 C 17.058594 14.6875 15.84375 11.148438 14.585938 7.476562 C 15.671875 6.457031 16.742188 5.457031 18.023438 4.253906 C 20.234375 10.183594 22.371094 15.914062 24.566406 21.804688 C 18.542969 22.285156 12.757812 22.742188 6.746094 23.222656 "/>
<path style=" stroke:none;fill-rule:nonzero;fill:rgb(92.980957%,11.471558%,14.03656%);fill-opacity:1;" d="M 6.980469 37.742188 C 6.796875 36.949219 6.648438 36.300781 6.46875 35.519531 C 8.371094 35.3125 10.140625 35.121094 12.308594 34.886719 C 10.136719 32.878906 8.230469 31.117188 6.261719 29.300781 C 6.261719 28.898438 6.261719 28.457031 6.261719 27.691406 C 9.871094 30.519531 13.3125 33.21875 17.078125 36.171875 C 13.476562 36.730469 10.339844 37.21875 6.980469 37.742188 "/>
<path style=" stroke:none;fill-rule:nonzero;fill:rgb(92.980957%,11.471558%,14.03656%);fill-opacity:1;" d="M 28.15625 53.203125 C 26.285156 54.15625 24.566406 55.027344 22.726562 55.964844 C 22.3125 55.515625 21.902344 55.078125 21.394531 54.527344 C 23.914062 53.160156 26.292969 51.867188 28.824219 50.492188 C 30.289062 53.207031 31.710938 55.839844 33.320312 58.8125 C 32.265625 58.5625 31.578125 58.398438 30.820312 58.214844 C 29.96875 56.609375 29.117188 55.003906 28.15625 53.203125 "/>
<path style=" stroke:none;fill-rule:nonzero;fill:rgb(92.980957%,11.471558%,14.03656%);fill-opacity:1;" d="M 49.628906 57.492188 C 49.15625 57.710938 48.859375 57.851562 48.445312 58.046875 C 47.160156 56.605469 45.886719 55.175781 44.5 53.621094 C 43.175781 55.464844 41.957031 57.167969 40.683594 58.945312 C 40.296875 58.945312 39.878906 58.945312 39.25 58.945312 C 41.050781 56.40625 42.75 54.007812 44.570312 51.429688 C 46.277344 53.476562 47.871094 55.386719 49.628906 57.492188 "/>
<path style=" stroke:none;fill-rule:nonzero;fill:rgb(92.980957%,11.471558%,14.03656%);fill-opacity:1;" d="M 12.9375 10.113281 C 13.792969 12.300781 14.507812 14.128906 15.335938 16.253906 C 13.378906 16.347656 11.710938 16.425781 9.699219 16.523438 C 10.8125 14.320312 11.789062 12.386719 12.9375 10.113281 "/>
<path style=" stroke:none;fill-rule:nonzero;fill:rgb(92.980957%,11.471558%,14.03656%);fill-opacity:1;" d="M 2.660156 48.300781 C 2.054688 47.207031 1.519531 46.238281 0.859375 45.046875 C 3.9375 44.628906 6.792969 44.238281 9.652344 43.847656 C 9.691406 43.976562 9.734375 44.101562 9.773438 44.230469 C 7.441406 45.566406 5.109375 46.902344 2.660156 48.300781 "/>
<path style=" stroke:none;fill-rule:nonzero;fill:rgb(92.980957%,11.471558%,14.03656%);fill-opacity:1;" d="M 9.398438 53.902344 C 8.601562 53.242188 7.90625 52.667969 7.210938 52.09375 C 7.230469 51.96875 7.25 51.84375 7.265625 51.714844 C 9.667969 51.398438 12.066406 51.082031 14.46875 50.769531 C 14.507812 50.882812 14.542969 50.996094 14.582031 51.113281 C 12.894531 52.019531 11.207031 52.929688 9.398438 53.902344 "/>
</g>
</svg>

<svg xmlns="http://www.w3.org/2000/svg" width="236.707" height="59pt" viewBox="0 0 177.53 59"><defs><clipPath id="a"><path d="M166 1h11.531v40H166Zm0 0"/></clipPath></defs><path d="M23.508 41.34c-2.29 1.402-4.356 2.672-6.426 3.941q.054.137.11.274l8.265-1.04zm12.844 14.008c1.796-2.625 3.421-5.004 5.191-7.586h-2.754c-.617.832-1.21 1.629-1.875 2.52l-1.664-2.536h-2.816zM24.32 29.297c.149-.863.25-1.465.399-2.336-3.485.293-6.824.57-10.168.848q-.043.186-.09.37c2.695 2.184 5.39 4.364 8.262 6.688.293-1.008.496-1.703.695-2.398-1.02-.926-1.977-1.797-3.11-2.824 1.551-.133 2.735-.239 4.012-.348M0 40.832q10.9-1.592 21.8-3.18l.141-.343c-4.437-3.641-8.875-7.278-13.664-11.2 6.68-.695 12.985-1.351 19.575-2.039-2.622-7.129-5.168-14.066-7.77-21.148 1.766-.985 3.438-1.914 5.25-2.922 2.203 12.105 4.375 24 6.566 36.027 5.11-.574 10.04-1.125 15.047-1.687.293.285.614.59.996.953 1.043-.098 2.141-.203 3.239-.309.035.11.062.215.097.32-3.996 2.173-7.992 4.34-12.293 6.673 6.34 4.406 12.493 8.675 18.926 13.14-2.125.625-3.941 1.156-5.75 1.684-2.594-3.059-5.066-5.969-7.652-9.016-2.801 3.754-5.492 7.363-8.363 11.215L29.77 47.633 13.28 56.879a416 416 0 0 1-1.844-1.363c4.43-2.63 8.68-5.149 12.934-7.672l-.105-.34c-6.25.734-12.504 1.473-18.754 2.207a6 6 0 0 1-.145-.262q6.981-4.118 13.961-8.242a12 12 0 0 0-.098-.348c-6.175.703-12.347 1.41-18.55 2.118-.25-.286-.465-.528-.68-.77zM137.973 50.656h-7.645c-.742-8.332-1.488-16.668-2.23-25.004q-.183-.092-.36-.18c-5.261 8.356-10.363 16.817-15.613 25.216h-7.746C114.215 34.27 123.965 18 133.715 1.73q.214.02.43.043z" style="stroke:none;fill-rule:nonzero;fill:#ed1d24;fill-opacity:1"/><path d="M86.46 1.086h8.497L75.43 35.773h25.062c-1.11 1.895-2.031 3.477-2.941 5.032H63.699c7.664-13.375 15.207-26.54 22.762-39.72M162.816 1.063c-7.879 13.242-15.613 26.246-23.351 39.25l-.39-.024c-1.274-13.008-2.552-26.016-3.84-39.164h7.753c.578 5.41 1.16 10.887 1.746 16.363q.17.093.332.18c3.348-5.523 6.692-11.047 10.063-16.605zM158.273 24.285c-2.972 5.516-5.949 11.035-8.918 16.547h-7.792L164.324 1.57q.176.013.352.032c1.105 13 2.215 26 3.336 39.152h-7.664c-.575-5.43-1.157-10.906-1.735-16.383q-.17-.042-.34-.086" style="stroke:none;fill-rule:nonzero;fill:#272b71;fill-opacity:1"/><path d="M89.113 29.559h14.84l-2.406 4.492H78.344L97.156 1.063h8.496c-5.52 9.507-10.941 18.855-16.539 28.496M108.5 40.836h-8.469c7.66-13.363 15.2-26.516 22.778-39.742h8.5c-7.641 13.308-15.211 26.504-22.809 39.742" style="stroke:none;fill-rule:nonzero;fill:#272b71;fill-opacity:1"/><g clip-path="url(#a)"><path d="M166.121 1.078h7.414c1.332 13.2 2.656 26.367 3.996 39.68h-7.394a101826 101826 0 0 1-4.016-39.68" style="stroke:none;fill-rule:nonzero;fill:#272b71;fill-opacity:1"/></g><path d="M128.371 50.656h-13.793c3.957-6.484 7.824-12.824 11.692-19.168q.17.047.34.086c.585 6.328 1.167 12.653 1.761 19.082M6.746 23.223c.473-1.313.871-2.426 1.344-3.735 3.308-.37 6.637-.746 10.226-1.148a6932 6932 0 0 1-3.73-10.863c1.086-1.02 2.156-2.02 3.437-3.223l6.543 17.55c-6.023.481-11.808.938-17.82 1.419M6.98 37.742 6.47 35.52c1.902-.208 3.672-.399 5.84-.633A8163 8163 0 0 0 6.262 29.3v-1.61c3.61 2.829 7.05 5.528 10.816 8.48zM28.156 53.203c-1.87.953-3.59 1.824-5.43 2.762-.413-.45-.824-.887-1.331-1.438 2.52-1.367 4.898-2.66 7.43-4.035 1.464 2.715 2.886 5.348 4.495 8.32-1.054-.25-1.742-.414-2.5-.597-.851-1.606-1.703-3.211-2.664-5.012M49.629 57.492c-.473.219-.77.36-1.184.555L44.5 53.62c-1.324 1.844-2.543 3.547-3.816 5.324H39.25c1.8-2.539 3.5-4.937 5.32-7.515 1.707 2.047 3.301 3.957 5.059 6.062" style="stroke:none;fill-rule:nonzero;fill:#ed1d24;fill-opacity:1"/><path d="M12.938 10.113c.855 2.188 1.57 4.016 2.398 6.14-1.957.095-3.625.173-5.637.27zM2.66 48.3l-1.8-3.253c3.078-.418 5.933-.809 8.792-1.2.04.13.082.255.121.383-2.332 1.336-4.664 2.672-7.113 4.07M9.398 53.902c-.796-.66-1.492-1.234-2.187-1.808q.03-.186.055-.38c2.402-.316 4.8-.632 7.203-.944q.056.168.113.343z" style="stroke:none;fill-rule:nonzero;fill:#ed1d24;fill-opacity:1"/></svg>
